icons/baby_female_0306m_fill.svg

<svg width="48" height="48" viewBox="0 0 48 48" fill="none" xmlns="http://www.w3.org/2000/svg">
<path fill-rule="evenodd" clip-rule="evenodd" d="M17.8 32.5999C19.1255 33.594 19.3941 35.4744 18.4 36.7999L15.4 40.7999C14.8334 41.5553 13.9443 41.9999 13 41.9999H9C7.34315 41.9999 6 40.6568 6 38.9999C6 37.3431 7.34315 35.9999 9 35.9999H11.5L13.6 33.1999C14.5941 31.8744 16.4745 31.6058 17.8 32.5999Z" fill="black"/>
<path fill-rule="evenodd" clip-rule="evenodd" d="M27.2353 29.0002C27.2097 29 27.1842 28.9999 27.1586 29.0001H27.1539H25.1767L25.9892 42H26.8147H26.8158C27.228 41.9992 27.6378 41.95 28.0386 41.8538L27.2353 29.0002ZM29.9862 40.952C30.3533 40.6866 30.6932 40.3754 30.999 40.0237L31.5684 39.3686C31.7925 39.6176 32.0113 39.967 32.2386 40.33C32.7406 41.1318 33.2842 42 34.0188 42H39.6078C40.2779 42 40.7864 41.7047 41.2602 41.179C41.7339 40.6532 42 39.9401 42 39.1967C42 38.4533 41.7339 37.7402 41.2602 37.2146C40.7864 36.6887 40.144 36.3934 39.4739 36.3934H36.2698L35.7002 36.1313C35.2717 35.6552 34.7654 35.0151 34.2136 34.3175L34.2136 34.3175C32.8855 32.6386 31.2946 30.6273 29.895 29.772C29.6913 29.6474 29.4815 29.5375 29.2668 29.4425L29.9862 40.952ZM21.5 29.0001H23.1728L23.9853 42H22.0859L21.5 29.0001Z" fill="black"/>
<path d="M40 21.5C40 25.0899 37.0899 28 33.5 28C29.9101 28 27 25.0899 27 21.5C27 17.9101 29.9101 15 33.5 15C37.0899 15 40 17.9101 40 21.5Z" fill="black"/>
<path fill-rule="evenodd" clip-rule="evenodd" d="M33.5 26C35.9853 26 38 23.9853 38 21.5C38 19.0147 35.9853 17 33.5 17C31.0147 17 29 19.0147 29 21.5C29 23.9853 31.0147 26 33.5 26ZM33.5 28C37.0899 28 40 25.0899 40 21.5C40 17.9101 37.0899 15 33.5 15C29.9101 15 27 17.9101 27 21.5C27 25.0899 29.9101 28 33.5 28Z" fill="black"/>
<path fill-rule="evenodd" clip-rule="evenodd" d="M12 16C14.2091 16 16 14.2091 16 12C16 9.79086 14.2091 8 12 8C9.79086 8 8 9.79086 8 12C8 14.2091 9.79086 16 12 16ZM18 12C18 14.973 15.8377 17.441 13 17.917V20H15C15.5523 20 16 20.4477 16 21C16 21.5523 15.5523 22 15 22H13V25C13 25.5523 12.5523 26 12 26C11.4477 26 11 25.5523 11 25V22H9C8.44772 22 8 21.5523 8 21C8 20.4477 8.44772 20 9 20H11V17.917C8.16229 17.441 6 14.973 6 12C6 8.68629 8.68629 6 12 6C15.3137 6 18 8.68629 18 12Z" fill="black"/>
</svg>

<svg
  xmlns="http://www.w3.org/2000/svg"
  width="24"
  height="24"
  viewBox="0 0 24 24"
  fill="none"
  stroke="currentColor"
  stroke-width="2"
  stroke-linecap="round"
  stroke-linejoin="round"
>
  <path
    fill-rule="evenodd"
    d="M17.8 32.6a3 3 0 0 1 .6 4.2l-3 4A3 3 0 0 1 13 42H9a3 3 0 1 1 0-6h2.5l2.1-2.8a3 3 0 0 1 4.2-.6"
    clip-rule="evenodd"
  />
  <path
    fill-rule="evenodd"
    d="M27.235 29h-2.058l.812 13h.826q.621-.001 1.224-.146zm2.751 11.952A6 6 0 0 0 31 40.024l.57-.655c.224.249.442.598.67.961.502.802 1.045 1.67 1.78 1.67h5.589c.67 0 1.178-.295 1.652-.821s.74-1.239.74-1.982c0-.744-.266-1.457-.74-1.982-.474-.526-1.116-.822-1.786-.822H36.27l-.57-.262c-.428-.476-.935-1.116-1.486-1.813-1.328-1.68-2.92-3.69-4.319-4.546a5 5 0 0 0-.628-.33zM21.5 29h1.673l.812 13h-1.9z"
    clip-rule="evenodd"
  />
  <path d="M40 21.5a6.5 6.5 0 1 1-13 0 6.5 6.5 0 0 1 13 0" />
  <path
    fill-rule="evenodd"
    d="M33.5 26a4.5 4.5 0 1 0 0-9 4.5 4.5 0 0 0 0 9m0 2a6.5 6.5 0 1 0 0-13 6.5 6.5 0 0 0 0 13"
    clip-rule="evenodd"
  />
  <path
    fill-rule="evenodd"
    d="M12 16a4 4 0 1 0 0-8 4 4 0 0 0 0 8m6-4a6 6 0 0 1-5 5.917V20h2a1 1 0 1 1 0 2h-2v3a1 1 0 1 1-2 0v-3H9a1 1 0 1 1 0-2h2v-2.083A6.002 6.002 0 0 1 12 6a6 6 0 0 1 6 6"
    clip-rule="evenodd"
  />
</svg>
